X:140
T:Friendly Visit, The
R:hornpipe
Z:id:hn-hornpipe-140
M:C|
L:1/8
K:G
BA | G2DG BG (3Bcd | c2AB cdef | g2dg ecAG | FGAB cAFA |
G2DG BG (3Bcd | c2AB cdef | gdBG FAdc | B2G2 G2 :|
|: (3def | g2dB GBdg | (3efe cA E3g | (3fgf ed ^cdeg | (3fgf (3efe dcBA |
G2DG BG (3Bcd | c2AB cdef | gdBG FAdc | B2G2 G2 :| 

